X:12
T:The tempelhouse jig
R:Double jig
M:6/8
L:1/8
K:Em
|EFE G2E|B2E G2E|DED F2D|A2D F2D|
EFE G2E |BBE G2E|BcB cBA|BGE E3|
gfg ege|gfg ege|faf dfd|faf def|
gfg ege|gfg ege|gbg faf|bge e2f|
gfg ege|gfg ege|faf dfd|faf def|
gfe agf|bag fed|BcB cBA|BGE E3|]
